icon-themes/breeze_svg/cmd/sc_smallcaps.svg

<svg viewBox="0 0 16 16" xmlns="http://www.w3.org/2000/svg"><path d="m4.1308594 5-3.1308594 8h1.1699219l.7480469-2h3.6953124l.7480469 2h1.1523438l-3.125-8zm.6269531 1 1.5097656 4h-3.015625zm4.2421875 0v7h1 3a2 2 0 0 0 2-2 2 2 0 0 0 -1.341797-1.8847656 2 2 0 0 0 .341797-1.1152344 2 2 0 0 0 -2-2h-2zm1 1h2a1 1 0 0 1 1 1 1 1 0 0 1 -1 1h-2zm0 3h3a1 1 0 0 1 1 1 1 1 0 0 1 -1 1h-3z" fill="#4d4d4d"/><path d="m11.214844 5-2.5000002-3h5.0000002z" fill="#1d99f3"/></svg>

<svg xmlns="http://www.w3.org/2000/svg" viewBox="0 0 16 16">
 <path 
     style="fill:#4d4d4d" 
     d="M 4.1308594 5 L 1 13 L 2.1699219 13 L 2.9179688 11 L 6.6132812 11 L 7.3613281 13 L 8.5136719 13 L 5.3886719 5 L 4.1308594 5 z M 4.7578125 6 L 6.2675781 10 L 3.2519531 10 L 4.7578125 6 z M 9 6 L 9 13 L 10 13 L 13 13 A 2 2 0 0 0 15 11 A 2 2 0 0 0 13.658203 9.1152344 A 2 2 0 0 0 14 8 A 2 2 0 0 0 12 6 L 10 6 L 9 6 z M 10 7 L 12 7 A 1 1 0 0 1 13 8 A 1 1 0 0 1 12 9 L 10 9 L 10 7 z M 10 10 L 13 10 A 1 1 0 0 1 14 11 A 1 1 0 0 1 13 12 L 10 12 L 10 10 z "
     />
 <path 
     style="fill:#1d99f3" 
     d="M 11.214844 2 L 8.7148438 5 L 13.714844 5 L 11.214844 2 z "
     />
 </svg>
